assets/Toothbrush/Flat/toothbrush_flat.svg

<svg width="32" height="32" viewBox="0 0 32 32" fill="none" xmlns="http://www.w3.org/2000/svg">
<path d="M11.0792 3.74014C11.4933 3.33662 12.1558 3.33662 12.5596 3.74014C12.9736 4.14366 12.9736 4.80584 12.5596 5.20936L9.35045 8.4375L8.2425 7.8855L7.87012 6.95793L11.0792 3.74014Z" fill="#83CBFF"/>
<path d="M13.9379 6.59014C14.3518 6.18662 15.0139 6.18662 15.4175 6.59014C15.821 6.99365 15.821 7.65584 15.4175 8.0697L12.1997 11.2875L10.9699 10.9857L10.7201 9.80793L13.9379 6.59014Z" fill="#83CBFF"/>
<path d="M11.1282 2.30992C10.7245 1.89669 10.0622 1.89669 9.65856 2.30992L6.43994 5.52273L6.90813 6.51201L7.91989 7L11.1385 3.78719C11.5421 3.37397 11.5421 2.71281 11.1282 2.30992Z" fill="#AEDDFF"/>
<path d="M13.9801 5.15951C13.5772 4.75683 12.9161 4.75683 12.5028 5.15951L9.29004 8.38099L9.67473 9.33747L10.7673 9.8575L13.9801 6.64635C14.3933 6.23334 14.3933 5.57252 13.9801 5.15951Z" fill="#AEDDFF"/>
<path d="M15.3583 8.02014C15.7723 7.61662 16.4346 7.61662 16.8382 8.02014C17.2522 8.42366 17.2522 9.08584 16.8486 9.4997L13.63 12.7175L12.4217 12.2611L12.15 11.2379L15.3583 8.02014Z" fill="#AEDDFF"/>
<path d="M20.7206 17.324C19.6131 16.2054 18.288 15.3066 16.8443 14.6874C15.4005 14.0682 14.0754 13.1694 12.9679 12.0508L6.60939 5.62918C5.77874 4.79027 4.44376 4.79027 3.62299 5.62918C2.79234 6.46809 2.79234 7.81634 3.62299 8.64526L9.6848 14.7673L9.97157 15.0669L23.8653 29.1087C25.042 30.2971 26.9506 30.2971 28.1174 29.1087C29.2942 27.9202 29.2942 25.9927 28.1174 24.8142L20.7206 17.324Z" fill="#F8312F"/>
</svg>

<svg xmlns="http://www.w3.org/2000/svg" width="32" height="32" fill="none"><path fill="#83CBFF" d="M11.08 3.74a1.056 1.056 0 0 1 1.48 0 1.024 1.024 0 0 1 0 1.47L9.35 8.437l-1.107-.553-.373-.927 3.21-3.218ZM13.938 6.59a1.056 1.056 0 0 1 1.48 0 1.056 1.056 0 0 1 0 1.48L12.2 11.287l-1.23-.301-.25-1.178 3.218-3.218Z"/><path fill="#AEDDFF" d="M11.128 2.31a1.026 1.026 0 0 0-1.47 0L6.44 5.523l.468.989L7.92 7l3.219-3.213a1.043 1.043 0 0 0-.01-1.477ZM13.98 5.16a1.054 1.054 0 0 0-1.477 0L9.29 8.38l.385.956 1.092.52 3.213-3.21a1.047 1.047 0 0 0 0-1.487ZM15.358 8.02a1.056 1.056 0 0 1 1.48 0c.414.404.414 1.066.01 1.48l-3.218 3.217-1.208-.456-.272-1.023 3.208-3.218Z"/><path fill="#F8312F" d="M20.72 17.324a12.282 12.282 0 0 0-3.876-2.637 12.28 12.28 0 0 1-3.876-2.636L6.609 5.629a2.086 2.086 0 0 0-2.986 0 2.137 2.137 0 0 0 0 3.016l6.062 6.122.287.3 13.893 14.042a2.981 2.981 0 0 0 4.252 0 3.053 3.053 0 0 0 0-4.295l-7.396-7.49Z"/></svg>
